X: 28135
T: Mrs Crotty's
R: hornpipe
M: 4/4
K: Cmajor
ef|gG eg fA df|eG ce dA Bd|(3ccc Bc de fd|eG ce dd ef|
gG eg fA df|eG ce dA Bd|(3ccc Bc de fd|e2 c2 c2:|
ed|cA AG Ad cA|GF EF GA BG|c2 Bc de fd|eG ce d2 ed|
cA AG Ad cA|GF EF GA BG|c2 Bc de fd|e2 c2 c2:|
fg|aA fa gB eg|fA df eB ce|(3ddd cd ef ge|fA df ee fg|
aA fa gB eg|fA df eB ce|(3ddd cd ef ge|f2 d2 d2:|
fe|dB BA Be dB|AG FG AB cA|d2 cd ef ge|fA df e2 fe|
dB BA Be dB|AG FG AB cA|d2 cd ef ge|f2 d2 d2:|

